X:1
T:Silent Night
T:with simple Left Hand
T:Franz Xaver Gruber Arrangement: CF Byrne 2019 
T:© 2019 Charles F Byrne. Freely Distribute.  cf_byrne@hotmail.com
Z:© 2019 Charles F Byrne. Freely Distribute.  cf_byrne@hotmail.com
%%score { 1 | 2 }
L:1/8
Q:1/4=110
M:3/4
K:C
V:1 treble nm="Piano"
V:2 bass 
V:1
 !3!G3 A G2 | !1!E6 | !3!G3 A G2 | !1!E6 | d4 d2 | !3!B6 | !4!c4 c2 | !1!G6 | !2!A4 A2 | %9
w: Si- * lent|night,|ho- * ly|night;|all is|calm;|all is|bright.|'Round yon|
 !4!c3 B A2 | !1!G3 A !3!G2 | !1!E6 | A4 A2 | !4!c3 B A2 | !1!G3 A !3!G2 | !1!E6 | d4 d2 | %17
w: Vir- * gin|Mo- ther and|Child.|Ho- ly|in- fant so|ten- der and|mild|Sleep in|
 !5!f2 !3!d2 !1!B2 | !2!c6 | !4!e6 | c2 !2!G2 !1!E2 | G3 !4!F !2!D2 | C6- | C6 |] %24
w: hea- ven- ly|peace!||Sle- elp in|hea- ven- ly|peace!||
V:2
 !1!C6 | C6 | !2!B,6 | !1!C6 | F,6 | !3!G,6 | !2!A,6 | !5!E,6 | !4!F,6 | F,2 G,2 A,2 | !2!B,6 | %11
 !1!C6 | !5!F,6 | F,2 G,2 A,2 | !2!B,6 | !1!C6 | F,6 | !3!G,6 | !2!A,2 !3!G,2 !4!F,2 | %19
 !5!E,2 !3!G,2 !1!B,2 | A,2 !2!B,2 !1!C2 | C4 !2!B,2 | C2 !2!G,2 !4!E,2 | !5!C,6 |] %24

